X: 14
T:Hoffedd Brenhines Hwngaria
T:The Queen of Hungary's Fancy
M:6/8
L:1/8
Q:130
S:Cadw Twmpath Collection
R:Jig
A:Wales
Z:brian_martin12345@yahoo.com
K:D
def def|agfe2f|def def|e2a age|
def def|agfe2a|fba gfe|d3d3:||
aba aba|gag gag|fgf gfd|feee2A|
def def|agfe2a|fba gfe|d3d3:||
